Resources/Icons/PCGEx_Editor_RebuildStagingProject.svg

<?xml version="1.0" encoding="UTF-8"?>
<svg id="icons" xmlns="http://www.w3.org/2000/svg" viewBox="0 0 100 100">
  <defs>
    <style>
      .cls-1 {
        fill: #fff;
      }

      .cls-2 {
        fill: #ed1e79;
      }
    </style>
  </defs>
  <path class="cls-1" d="M65.4,84.82c-10.18,0-18.47-8.29-18.47-18.47s8.28-18.47,18.47-18.47c4.37,0,8.38,1.54,11.54,4.08l-9.16,7.92,24.12,3.56-.05-24.38-8.47,7.32c-4.76-4.29-11.06-6.91-17.98-6.91-14.84,0-26.87,12.03-26.87,26.87s12.03,26.87,26.87,26.87c11.64,0,21.55-7.4,25.29-17.76l-8.59-1.27c-2.96,6.26-9.32,10.62-16.7,10.62Z"/>
  <path class="cls-2" d="M65.21,15.49c8.83,0,17.13,2.3,24.35,6.32-1.44-3.1-3.48-5.87-5.96-8.16-5.75-2.04-11.94-3.16-18.39-3.16-30.42,0-55.17,24.75-55.17,55.18,0,7.4,1.47,14.45,4.12,20.9,2.34,2.1,5.07,3.79,8.06,4.93-4.55-7.55-7.18-16.39-7.18-25.83,0-27.67,22.51-50.18,50.17-50.18ZM91.95,32.07c-7.34-5.86-16.63-9.37-26.73-9.37-23.69,0-42.96,19.27-42.96,42.96,0,10.47,3.77,20.07,10.02,27.54h6.85c-7.3-6.92-11.87-16.7-11.87-27.54,0-20.93,17.03-37.96,37.96-37.96,10.43,0,19.88,4.23,26.75,11.05v-6.11c0-.19-.01-.39-.01-.58ZM49.14,6.78h-13.78c-13,6.62-23.54,17.41-29.82,30.6v15.42C10.34,30.53,27.32,12.74,49.14,6.78Z"/>
</svg>

<svg id="icons" xmlns="http://www.w3.org/2000/svg" viewBox="0 0 100 100">
    <defs>
        <style>.cls-1{fill:#fff;}.cls-2{fill:#ed1e79;}</style>
    </defs>
    <path class="cls-1"
          d="M65.4,84.82a18.47,18.47,0,0,1,0-36.94A18.31,18.31,0,0,1,76.94,52l-9.16,7.92L91.9,63.44l-.05-24.38-8.47,7.33a26.86,26.86,0,1,0,7.31,29.08L82.1,74.2A18.49,18.49,0,0,1,65.4,84.82Z"/>
    <path class="cls-2"
          d="M65.21,15.49a49.85,49.85,0,0,1,24.35,6.32,26.15,26.15,0,0,0-6-8.16A55.16,55.16,0,0,0,14.16,86.57a26.22,26.22,0,0,0,8.06,4.93,50.15,50.15,0,0,1,43-76ZM92,32.07A42.93,42.93,0,0,0,32.27,93.2h6.85A37.94,37.94,0,1,1,92,38.76V32.65C92,32.46,92,32.26,92,32.07ZM49.14,6.78H35.36A66.47,66.47,0,0,0,5.54,37.38V52.8A61.25,61.25,0,0,1,49.14,6.78Z"/>
</svg>
